source/img/icon-tick.svg

<svg width="24" height="17" viewBox="0 0 24 17" fill="none" xmlns="http://www.w3.org/2000/svg">
<path d="M22.925 1.325L21.825 0.225C21.525 -0.075 20.925 -0.075 20.625 0.225L8.725 12.125L2.525 5.925C2.225 5.625 1.625 5.625 1.325 5.925L0.225 7.025C-0.075 7.325 -0.075 7.925 0.225 8.225L8.025 16.025C8.225 16.225 8.425 16.225 8.625 16.225C8.825 16.225 9.025 16.125 9.225 16.025L22.725 2.525C23.225 2.225 23.225 1.725 22.925 1.325Z" fill="black"/>
</svg>

<svg width="24" height="17" fill="none" xmlns="http://www.w3.org/2000/svg"><path d="M22.93 1.32l-1.1-1.1c-.3-.3-.9-.3-1.2 0l-11.9 11.9-6.2-6.2c-.3-.3-.9-.3-1.2 0l-1.1 1.1c-.3.3-.3.9 0 1.2l7.8 7.8c.2.2.4.2.6.2.2 0 .4-.1.6-.2l13.5-13.5c.5-.3.5-.8.2-1.2z" fill="#000"/></svg>
